src/lib/assets/secret_logo.svg

<svg width="1000" height="284" viewBox="0 0 1000 284" fill="none" xmlns="http://www.w3.org/2000/svg">
<path d="M241.422 41.4731C214.698 14.7208 179.198 0 141.433 0C63.4411 0 0 63.4977 0 141.546C0 219.595 63.4411 283.093 141.433 283.093C179.198 283.093 214.726 268.372 241.422 241.62C268.146 214.867 282.838 179.339 282.838 141.546C282.838 103.754 268.146 68.1971 241.422 41.4731ZM141.433 273.298C68.8482 273.298 9.79502 214.188 9.79502 141.546C9.79502 68.9048 68.8482 9.79501 141.433 9.79501C214.018 9.79501 273.071 68.9048 273.071 141.546C273.071 214.188 214.018 273.298 141.433 273.298Z" fill="white"/>
<path d="M187.862 144.887C178.803 136.791 166.941 131.384 155.447 126.147L155.363 126.118C135.093 116.861 117.57 108.85 118.815 89.9106C119.353 82.6918 124.59 78.3321 128.893 75.9825C133.734 73.3214 140.16 71.7361 146.105 71.7361C146.813 71.7361 147.521 71.7644 148.2 71.7927C165.497 72.9534 179.142 80.2855 192.476 95.5159L193.269 96.4501L194.203 95.6574L199.412 91.1279L200.346 90.307L199.525 89.3728C184.663 72.3306 168.526 63.7529 148.795 62.4223C147.945 62.3374 147.04 62.3091 146.049 62.3091C145.454 62.3091 144.803 62.3091 144.124 62.3374H143.274C130.337 62.3374 116.154 66.5838 105.368 73.7177C92.4876 82.2388 85.2687 93.9589 85.0706 106.726C84.561 137.782 109.954 148.228 132.347 157.485L132.404 157.513L132.63 157.598C152.447 165.808 169.545 172.885 169.177 191.852C169.008 204.365 151.116 211.273 138.83 211.273H138.32H137.103V211.301C118.787 210.763 102.424 202.865 88.4677 187.889L87.6184 186.983L86.7125 187.804L81.6452 192.503L80.7393 193.353L81.5885 194.259C97.4417 211.329 117.003 220.501 138.179 220.756H139.141C152.815 220.756 167.677 217.076 178.888 210.876C192.929 203.204 201.11 192.022 201.96 179.396C202.922 165.525 198.308 154.229 187.862 144.887ZM122.127 117.88C130.196 124.788 141.123 129.742 151.682 134.526L151.88 134.611C163.063 139.763 173.65 144.632 181.322 151.398C189.815 158.872 193.41 167.535 192.646 178.66C191.938 189.673 183.757 197.033 176.311 201.478C177.755 198.533 178.548 195.334 178.633 191.937C178.803 180.5 174.415 171.356 165.186 163.939C157.118 157.457 146.417 153.069 136.056 148.794C114.512 139.933 94.1579 131.554 94.5259 106.811C94.6391 97.2994 100.358 88.297 110.634 81.4745C110.974 81.248 111.313 81.0215 111.681 80.7951C110.464 83.4561 109.785 86.2304 109.615 89.1463C108.794 100.612 112.899 110.01 122.127 117.88Z" fill="white"/>
<path d="M439.909 111.459L446.484 98.3092C436.841 91.9533 423.472 87.7891 409.664 87.7891C388.624 87.7891 369.556 97.2134 369.556 119.13C369.337 159.896 433.992 145.65 433.334 173.703C433.115 185.319 422.157 190.579 408.568 190.579C394.98 190.579 380.076 185.1 370.214 175.895L363.639 188.388C374.597 198.908 391.473 204.606 407.911 204.606C430.047 204.606 450.21 194.524 450.21 171.95C450.21 130.527 385.775 143.896 385.775 117.815C385.775 106.857 395.637 102.254 408.568 102.254C419.308 102.254 430.923 105.761 439.909 111.459Z" fill="white"/>
<path d="M523.878 88.0083C490.346 88.2275 466.675 111.898 466.675 146.307C466.675 180.717 490.126 204.606 524.098 204.606C543.384 204.606 559.603 197.593 570.561 185.538L561.137 175.676C552.151 185.1 539.659 190.36 525.413 190.36C502.838 190.36 486.401 175.457 483.551 152.663H577.794C579.547 113.651 561.137 88.0083 523.878 88.0083ZM483.551 139.075C485.962 116.719 501.742 102.254 523.878 102.254C546.453 102.254 561.356 116.719 562.452 139.075H483.551Z" fill="white"/>
<path d="M687.793 116.939L697.217 105.103C686.697 94.3642 671.355 88.0083 652.726 88.0083C619.412 88.0083 595.523 112.117 595.523 146.307C595.523 180.717 619.193 204.606 652.726 204.606C672.67 204.606 688.669 197.154 698.97 184.662L689.108 174.58C680.998 184.223 668.506 189.483 653.383 189.483C629.494 189.483 612.399 171.95 612.399 146.307C612.399 120.884 629.494 103.35 653.383 103.35C667.41 103.35 679.026 108.391 687.793 116.939Z" fill="white"/>
<path d="M747.088 114.309V88.6658H729.993V203.949H747.088V142.581C749.06 119.349 764.183 104.227 788.511 104.665V88.0083C769.005 88.2275 754.759 97.4326 747.088 114.309Z" fill="white"/>
<path d="M857.126 88.0083C823.593 88.2275 799.923 111.898 799.923 146.307C799.923 180.717 823.374 204.606 857.345 204.606C876.632 204.606 892.851 197.593 903.809 185.538L894.385 175.676C885.399 185.1 872.906 190.36 858.66 190.36C836.086 190.36 819.648 175.457 816.799 152.663H911.042C912.795 113.651 894.385 88.0083 857.126 88.0083ZM816.799 139.075C819.21 116.719 834.99 102.254 857.126 102.254C879.7 102.254 894.604 116.719 895.7 139.075H816.799Z" fill="white"/>
<path d="M995.178 182.908C988.822 186.634 982.686 188.607 976.768 188.826C966.906 188.826 961.426 183.128 961.426 169.101V105.542H998.027V92.1725H961.426V61.9272H944.55V92.1725H927.894V105.542H944.55V171.95C944.55 194.743 957.043 204.825 973.919 204.606C983.124 204.606 991.891 201.538 1000 196.058L995.178 182.908Z" fill="white"/>
</svg>

<svg xmlns="http://www.w3.org/2000/svg" width="1000" height="284" fill="none"><path fill="#fff" d="M241.422 41.473C214.698 14.721 179.198 0 141.433 0 63.441 0 0 63.498 0 141.546c0 78.049 63.441 141.547 141.433 141.547 37.765 0 73.293-14.721 99.989-41.473 26.724-26.753 41.416-62.281 41.416-100.074 0-37.792-14.692-73.349-41.416-100.073Zm-99.989 231.825c-72.585 0-131.638-59.11-131.638-131.752 0-72.641 59.053-131.751 131.638-131.751 72.585 0 131.638 59.11 131.638 131.751 0 72.642-59.053 131.752-131.638 131.752Z"/><path fill="#fff" d="M187.862 144.887c-9.059-8.096-20.921-13.503-32.415-18.74l-.084-.029c-20.27-9.257-37.793-17.268-36.548-36.207.538-7.22 5.775-11.579 10.078-13.928 4.841-2.662 11.267-4.247 17.212-4.247.708 0 1.416.028 2.095.057 17.297 1.16 30.942 8.492 44.276 23.723l.793.934.934-.793 5.209-4.53.934-.82-.821-.934c-14.862-17.042-30.999-25.62-50.73-26.95a27.757 27.757 0 0 0-2.746-.114c-.595 0-1.246 0-1.925.028h-.85c-12.937 0-27.12 4.247-37.906 11.38-12.88 8.522-20.1 20.242-20.297 33.009-.51 31.056 24.883 41.502 47.276 50.759l.057.028.226.085c19.817 8.21 36.915 15.287 36.547 34.254-.169 12.513-18.061 19.421-30.347 19.421h-1.727v.028c-18.316-.538-34.679-8.436-48.635-23.412l-.85-.906-.905.821-5.068 4.699-.906.85.85.906c15.853 17.07 35.414 26.242 56.59 26.497h.962c13.674 0 28.536-3.68 39.747-9.88 14.041-7.672 22.222-18.854 23.072-31.48.962-13.871-3.652-25.167-14.098-34.509Zm-65.735-27.007c8.069 6.908 18.996 11.862 29.555 16.646l.198.085c11.183 5.152 21.77 10.021 29.442 16.787 8.493 7.474 12.088 16.137 11.324 27.262-.708 11.013-8.889 18.373-16.335 22.818a22.784 22.784 0 0 0 2.322-9.541c.17-11.437-4.218-20.581-13.447-27.998-8.068-6.482-18.769-10.87-29.13-15.145-21.544-8.861-41.898-17.24-41.53-41.983.113-9.512 5.832-18.514 16.108-25.337.34-.226.679-.453 1.047-.679a23.096 23.096 0 0 0-2.066 8.351c-.821 11.466 3.284 20.864 12.512 28.734Zm317.782-6.421 6.575-13.15c-9.643-6.356-23.012-10.52-36.82-10.52-21.04 0-40.108 9.424-40.108 31.341-.219 40.766 64.436 26.52 63.778 54.573-.219 11.616-11.177 16.876-24.766 16.876-13.588 0-28.492-5.479-38.354-14.684l-6.575 12.493c10.958 10.52 27.834 16.218 44.272 16.218 22.136 0 42.299-10.082 42.299-32.656 0-41.423-64.435-28.054-64.435-54.135 0-10.958 9.862-15.561 22.793-15.561 10.74 0 22.355 3.507 31.341 9.205Zm83.969-23.451c-33.532.22-57.203 23.89-57.203 58.299 0 34.41 23.451 58.299 57.423 58.299 19.286 0 35.505-7.013 46.463-19.068l-9.424-9.862c-8.986 9.424-21.478 14.684-35.724 14.684-22.575 0-39.012-14.903-41.862-37.697h94.243c1.753-39.012-16.657-64.655-53.916-64.655Zm-40.327 51.067c2.411-22.356 18.191-36.821 40.327-36.821 22.575 0 37.478 14.465 38.574 36.821h-78.901Zm204.242-22.136 9.424-11.836c-10.52-10.739-25.862-17.095-44.491-17.095-33.314 0-57.203 24.109-57.203 58.299 0 34.41 23.67 58.299 57.203 58.299 19.944 0 35.943-7.452 46.244-19.944l-9.862-10.082c-8.11 9.643-20.602 14.903-35.725 14.903-23.889 0-40.984-17.533-40.984-43.176 0-25.423 17.095-42.957 40.984-42.957 14.027 0 25.643 5.041 34.41 13.589Zm59.295-2.63V88.666h-17.095v115.283h17.095v-61.368c1.972-23.232 17.095-38.354 41.423-37.916V88.008c-19.506.22-33.752 9.425-41.423 26.301Zm110.038-26.301c-33.533.22-57.203 23.89-57.203 58.299 0 34.41 23.451 58.299 57.422 58.299 19.287 0 35.506-7.013 46.464-19.068l-9.424-9.862c-8.986 9.424-21.479 14.684-35.725 14.684-22.574 0-39.012-14.903-41.861-37.697h94.243c1.753-39.012-16.657-64.655-53.916-64.655Zm-40.327 51.067c2.411-22.356 18.191-36.821 40.327-36.821 22.574 0 37.478 14.465 38.574 36.821h-78.901Zm178.379 43.833c-6.356 3.726-12.492 5.699-18.41 5.918-9.862 0-15.342-5.698-15.342-19.725v-63.559h36.601v-13.37h-36.601V61.927H944.55v30.245h-16.656v13.37h16.656v66.408c0 22.793 12.493 32.875 29.369 32.656 9.205 0 17.972-3.068 26.081-8.548l-4.822-13.15Z"/></svg>
